X:125
T:Good night and Joy be with you all
R:Slow air:Reel:Polka:Hornpipe
O:England
M:4/4
N:version of song "the Parting glass"
A:Lancashire
B:Winder
K:D
fe | \
d2d2 A3d | B2B2 b3a | faba faba | f2e2 e2fe |\
d2d2 A3d | B2B2 b3a | faba faba | f2d2 d2 :|*
|:zf |\
edef e2dB | ABde f2ed | e3f gfga | b2e2 e3f |\
gfga b2ag | fefg a2gf | edef afef | e2B2 B2 :|**
